X:1
T:1er Prélude du Livre de Guittarre dédié au Roy 1682
T:Livre de Guittarre dédié au Roy 1682 1.Prélude 
T:Robert de Visée
C:Robert de Visée
%%score { 1 | 2 }
L:1/8
M:4/4
K:C
V:1 treble-8 nm="Guitar" snm="Guit."
V:2 tab stafflines=5 strings=A2,D3,G3,B3,E4 nostems 
V:1
 A,/c/e/E/ A/c/e/c/ A,/c/e/E/ A/c/e/c/ | B,/B/e/E/ ^G/B/e/B/ B,/B/e/E/ G/d/e/d/ | %2
 A,/^c/e/E/ A/c/e/c/ A,/c/g/E/ A/c/g/c/ | A,/d/f/D/ A/d/f/d/ A,/d/f/D/ A/d/f/d/ | %4
 A,A/B/ cA e(cB)A | ^GBed A,Ac=G | (Fed)(F E)(d^c)g | Dd^fC B,dgB, | A,(ce^f) GBgA | %9
 (Bdg)f cec'(D | E)(c'b)c' [fa](fe)f | D^f(ba) De^gB ||[M:3/4] Ce ae aD | E(a g^f) gE | %14
 ^D^f =D(f g)f | ^Ce =C(e ^f)e | B,(^c ^de) ^fd | E(^d e)(^f g)^c | D(^c d)(e f)B | C(B cd) eA, | %20
 B,E (Bc d)^G | A,(A ^A)(B cd) | e(B, C)(e ^fg) | [D^f]C B,(f ga) | E(a ^g^f) g(^c | d)(A B)E dB | %26
 [A,Acea]6 |] %27
V:2
 !5!A,,/ !2!C/ !1!E/ !4!E,/ !3!A,/ !2!C/ !1!E/ !2!C/ !5!A,,/ !2!C/ !1!E/ !4!E,/ !3!A,/ !2!C/ !1!E/ !2!C/ | %1
 !5!B,,/ !2!B,/ !1!E/ !4!E,/ !3!^G,/ !2!B,/ !1!E/ !2!B,/ !5!B,,/ !2!B,/ !1!E/ !4!E,/ !3!G,/ !2!D/ !1!E/ !2!D/ | %2
 !5!A,,/ !2!^C/ !1!E/ !4!E,/ !3!A,/ !2!C/ !1!E/ !2!C/ !5!A,,/ !2!C/ !1!G/ !4!E,/ !3!A,/ !2!C/ !1!G/ !2!C/ | %3
 !5!A,,/ !2!D/ !1!F/ !4!D,/ !3!A,/ !2!D/ !1!F/ !2!D/ !5!A,,/ !2!D/ !1!F/ !4!D,/ !3!A,/ !2!D/ !1!F/ !2!D/ | %4
 !5!A,, !3!A,/ !2!B,/ !2!C !3!A, !1!E (!2!C !2!B,) !3!A, | %5
 !3!^G, !2!B, !1!E !2!D !5!A,, !3!A, !2!C !3!=G, | %6
 (!4!F, !1!E !2!D) (!4!F, !4!E,) (!2!D !2!^C) !1!G | %7
 !4!D, !2!D !1!^F !5!C, !5!B,, !2!D !1!G !5!B,, | !5!A,, (!2!C !1!E !1!^F) !3!G, !2!B, !1!G !3!A, | %9
 (!3!B, !2!D !1!G) !2!F !3!C !2!E !1!c (!5!D, | %10
 !5!E,) (!1!c !1!B) !1!c [!2!F!1!A] (!2!F !2!E) !2!F | %11
 !4!D, !2!^F (!1!B !1!A) !4!D, !2!E !1!^G !2!B, ||[M:3/4] !5!C, !2!E !1!A !2!E !1!A !4!D, | %13
 !4!E, (!1!A !1!G !1!^F) !1!G !4!E, | !4!^D, !1!^F !4!=D, (!1!F !1!G) !1!F | %15
 !5!^C, !1!E !5!=C, (!1!E !1!^F) !1!E | !5!B,, (!2!^C !2!^D !2!E) !1!^F !2!D | %17
 !4!E, (!2!^D !2!E) (!1!^F !1!G) !2!^C | !4!D, (!2!^C !2!D) (!1!E !1!F) !2!B, | %19
 !5!C, (!2!B, !2!C !2!D) !1!E !5!A,, | !5!B,, !4!E, (!2!B, !2!C !2!D) !3!^G, | %21
 !5!A,, (!3!A, !3!^A,) (!2!B, !2!C !2!D) | !1!E (!5!B,, !5!C,) (!1!E !1!^F !1!G) | %23
 [!4!D,!1!^F] !5!C, !5!B,, (!1!F !1!G !1!A) | !4!E, (!1!A !1!^G !1!^F) !1!G (!2!^C | %25
 !2!D) (!3!A, !3!B,) !4!E, !2!D !2!B, | [!5!A,,!4!A,!3!C!2!E!1!A]6 |] %27

